<?xml version="1.0" encoding="UTF-8"?>
<map version="1.9" tiledversion="1.9.1" orientation="orthogonal" renderorder="right-down" width="100" height="28" tilewidth="24" tileheight="24" infinite="0" nextlayerid="2" nextobjectid="1">
 <editorsettings>
  <export target="../../maps/map1.csv" format="csv"/>
 </editorsettings>
 <tileset firstgid="1" source="Gameset.tsx"/>
 <layer id="1" name="Kachelebene 1" width="100" height="28">
  <data encoding="csv">
0,0,0,0,0,0,0,0,0,0,0,0,0,0,0,0,0,0,0,0,0,0,0,0,0,0,0,0,0,0,0,0,0,0,0,0,0,0,0,0,0,0,0,0,0,0,0,0,0,0,0,0,0,0,0,0,0,0,0,0,0,0,0,0,0,0,0,0,0,0,0,0,0,0,0,0,0,0,0,0,0,0,0,0,0,0,0,0,0,0,0,0,0,0,0,0,0,0,0,0,
0,0,0,0,0,0,0,0,0,0,0,0,0,0,0,0,0,0,0,0,0,0,0,0,0,0,0,0,0,0,0,0,0,0,0,0,0,0,0,0,0,0,0,0,0,0,0,0,0,0,0,0,0,0,0,0,0,0,0,0,0,0,0,0,0,0,0,0,0,0,0,0,0,0,0,0,0,0,0,0,0,0,0,0,0,0,0,0,0,0,0,0,0,0,0,0,0,0,0,0,
0,0,0,0,0,0,0,0,0,0,0,0,0,0,0,0,0,0,0,0,0,0,0,0,0,0,0,0,0,0,0,0,0,0,0,0,0,0,0,0,0,0,0,0,0,0,0,0,0,0,0,0,0,0,0,0,0,0,0,0,0,0,0,0,0,0,0,0,0,0,0,0,0,0,0,0,0,0,0,0,0,0,0,0,0,0,0,0,0,0,0,0,0,0,0,0,0,0,0,0,
0,0,0,0,0,0,0,0,0,0,0,0,0,0,0,0,0,0,0,0,0,0,0,0,0,0,0,0,0,0,0,0,0,0,0,0,0,0,0,0,0,0,0,0,0,0,0,0,0,0,0,0,0,0,0,0,0,0,0,0,0,0,0,0,0,0,0,0,0,0,0,0,0,0,0,0,0,0,0,0,0,0,0,0,0,0,0,0,0,0,0,0,0,0,0,0,0,0,0,0,
0,0,0,0,0,0,0,0,0,0,0,0,0,0,0,0,0,0,0,0,0,0,0,0,0,0,0,0,0,0,0,0,0,0,0,0,0,0,0,0,0,0,0,0,0,0,0,0,0,0,0,0,0,0,0,0,0,0,0,0,0,0,0,0,0,0,0,0,0,0,0,0,0,0,0,0,0,0,0,0,0,0,0,0,0,0,0,0,0,0,0,0,0,0,0,0,0,0,0,0,
0,0,0,0,0,0,0,0,0,0,0,0,0,0,0,0,0,0,0,0,0,0,0,0,0,0,0,0,0,0,0,0,0,0,0,0,0,0,0,0,0,0,0,0,0,0,0,0,0,0,0,0,0,0,0,0,0,0,0,0,0,0,0,0,0,0,0,0,0,0,0,0,0,0,0,0,0,0,0,0,0,0,0,0,0,0,0,0,0,0,0,0,0,0,0,0,0,0,0,30,
0,0,0,0,0,0,0,0,0,0,0,0,0,0,0,0,0,0,0,0,0,0,0,0,0,0,0,0,0,0,0,0,0,0,0,0,0,48,0,0,0,0,0,0,0,0,0,0,0,0,0,0,0,0,0,0,0,0,0,0,0,0,0,0,0,0,0,0,0,0,0,0,0,0,0,0,0,0,0,0,0,0,0,0,0,0,0,0,0,0,0,0,0,0,0,0,0,0,0,40,
0,0,0,0,0,0,0,0,0,0,0,0,0,0,0,0,0,0,0,0,0,0,0,0,0,0,0,0,0,0,0,0,0,0,1,2,3,2,2,3,4,5,0,0,0,0,0,0,0,0,0,0,0,0,0,0,0,0,0,0,0,0,0,0,0,0,0,0,0,0,0,0,0,0,0,0,0,0,0,0,0,0,0,0,0,0,0,0,0,0,0,0,0,0,1,2,2,3,4,5,
0,0,0,0,0,0,0,0,0,0,0,0,0,0,0,0,0,0,0,0,0,0,0,0,0,0,0,0,0,0,0,0,0,0,11,12,13,14,12,13,14,15,0,0,0,0,0,0,0,0,48,0,0,0,0,48,0,0,0,0,0,0,0,0,0,0,0,0,0,0,0,0,0,0,0,0,0,0,0,0,0,0,0,0,0,0,0,0,0,0,0,0,0,0,11,12,13,14,14,15,
0,0,0,0,0,0,0,0,0,0,0,0,0,0,0,0,0,0,0,0,0,0,0,0,0,0,0,48,0,0,0,0,0,0,21,12,13,14,1,2,5,25,0,0,0,1,2,3,4,2,3,4,2,3,4,2,3,5,0,0,0,0,0,0,0,0,0,0,0,0,0,0,0,0,0,0,0,0,0,0,0,0,0,0,0,0,0,0,0,0,0,0,48,0,21,22,23,24,24,15,
0,0,0,0,0,0,0,0,0,0,0,0,0,0,0,0,0,0,0,0,0,0,0,0,0,0,1,2,3,5,0,0,0,0,11,14,14,14,11,14,25,15,0,0,0,11,12,12,12,12,12,12,12,12,12,13,14,15,0,0,0,0,0,0,0,0,0,0,0,0,0,0,0,0,0,0,0,0,0,0,46,2,2,2,2,3,4,2,2,2,2,3,4,5,31,32,33,34,34,15,
0,0,0,0,0,0,0,0,0,0,0,0,0,0,0,0,0,0,0,0,0,0,0,0,0,0,11,22,23,15,0,0,0,0,0,0,0,0,41,22,45,0,0,0,0,21,22,22,1,5,22,22,22,22,12,13,14,15,0,0,0,0,0,0,0,0,0,0,0,0,0,0,0,0,0,0,0,0,0,46,23,12,12,13,14,24,24,12,13,14,14,14,14,15,12,13,32,33,34,15,
0,0,0,0,0,0,0,0,0,0,0,0,0,0,0,0,0,0,0,0,0,0,0,46,2,3,21,23,23,25,3,4,47,0,0,0,0,0,0,0,0,0,0,0,0,31,32,32,41,45,32,32,32,32,12,13,14,25,0,0,0,0,0,48,0,0,0,0,0,0,0,0,0,0,0,0,0,0,46,23,23,22,12,13,14,34,12,13,14,14,24,24,24,15,12,13,32,33,34,15,
0,0,0,0,0,0,0,0,0,0,0,0,0,0,0,0,0,0,0,0,0,0,46,23,34,34,21,34,34,25,34,34,12,47,0,0,0,0,0,0,0,0,0,0,0,11,12,12,12,12,12,12,12,13,14,13,14,35,0,0,0,0,1,3,5,0,0,0,0,0,0,0,0,0,0,0,0,46,23,23,23,32,12,13,14,33,12,13,14,24,34,34,34,15,12,13,32,33,34,15,
0,0,48,0,0,0,1,3,5,0,0,0,0,0,0,0,0,48,0,0,0,46,23,23,34,34,31,34,34,35,34,14,12,12,47,0,0,0,0,0,0,0,0,0,0,31,22,22,22,12,13,14,14,14,14,13,14,35,2,3,4,2,3,24,3,4,2,3,4,2,3,2,3,4,2,3,4,12,13,23,23,14,14,13,14,33,12,12,13,14,32,33,34,15,22,23,32,33,34,15,
1,2,2,3,2,2,11,13,15,2,3,4,2,2,3,4,2,3,4,2,3,14,23,23,34,34,34,34,34,34,34,14,12,12,12,47,0,0,49,0,20,0,49,0,0,21,32,32,32,22,23,24,24,24,24,13,14,35,12,12,12,12,11,12,15,12,12,12,12,12,13,14,12,13,14,14,14,22,23,24,14,24,24,13,14,33,22,12,13,14,32,33,34,15,32,33,32,33,34,15,
11,12,13,14,12,13,11,12,25,14,12,1,5,13,13,14,12,13,12,12,13,14,23,23,34,34,34,34,34,34,34,24,12,12,12,12,6,7,8,7,7,8,7,8,9,31,32,33,34,32,33,34,34,34,34,13,14,15,22,22,22,22,11,22,15,22,22,22,22,12,13,14,12,13,14,24,24,32,33,34,24,1,2,3,5,33,32,12,13,14,34,14,14,15,22,32,33,34,14,15,
21,22,23,24,22,23,21,22,35,24,22,11,15,13,13,24,1,2,3,4,4,5,23,23,34,34,34,34,34,34,34,34,12,12,12,12,16,17,17,17,17,18,17,18,19,11,32,33,34,14,14,14,14,14,14,14,14,25,32,32,32,32,21,13,25,14,32,32,32,1,2,4,5,13,14,34,34,32,33,34,34,11,34,13,15,33,34,12,13,14,34,24,24,15,32,32,33,34,14,15,
11,32,33,24,24,24,34,32,33,34,32,11,15,13,13,34,21,33,32,12,13,15,12,12,12,12,12,12,12,12,12,12,12,12,12,12,26,27,27,17,27,28,27,28,29,21,12,13,14,1,2,3,5,24,24,24,24,35,32,33,34,12,13,14,14,24,14,14,1,4,5,14,15,13,12,13,14,32,33,34,34,11,13,14,25,33,34,22,23,24,34,34,34,22,32,33,34,13,14,15,
21,12,12,24,24,24,24,12,12,12,12,21,25,13,13,12,31,12,12,12,13,25,12,12,12,12,12,12,12,12,5,12,12,12,12,12,16,17,18,17,27,28,17,18,19,31,12,13,14,11,34,1,15,2,5,34,34,35,32,33,34,12,12,13,14,34,24,24,11,24,15,24,25,13,22,23,24,32,33,34,34,21,13,14,25,33,34,32,33,34,32,33,34,22,32,33,34,13,14,25,
21,22,22,24,24,24,24,22,22,22,22,31,35,13,13,22,21,22,22,22,23,35,12,12,12,12,12,12,12,12,15,12,12,12,12,12,26,17,18,17,27,27,27,28,29,21,12,13,14,11,12,11,25,23,15,13,14,15,32,33,34,22,12,12,13,14,34,12,21,13,25,34,35,13,32,33,34,32,33,34,33,31,13,14,35,33,34,22,32,32,32,33,34,22,32,33,34,13,14,15,
31,32,32,32,32,32,32,32,32,32,32,41,45,13,13,32,21,12,12,32,33,15,12,12,12,12,12,12,12,12,25,12,12,12,12,12,26,17,18,27,27,28,17,18,19,12,13,14,14,21,22,21,25,23,25,13,14,25,32,33,34,32,22,12,12,12,12,22,31,23,23,23,45,13,32,33,34,12,22,32,33,34,13,14,32,33,34,32,32,33,34,14,14,22,32,33,34,13,14,15,
21,12,1,2,3,4,5,12,12,12,12,12,12,13,12,12,31,22,22,12,13,25,12,12,12,12,12,12,12,12,25,12,12,12,12,12,16,17,18,18,17,18,17,18,29,22,23,24,14,22,32,31,32,32,35,13,14,15,22,32,33,12,13,14,14,14,14,14,21,14,13,12,13,14,32,33,12,22,32,32,33,34,13,14,32,33,34,32,33,34,34,24,24,22,32,33,34,13,14,15,
31,22,31,22,22,22,15,22,22,22,22,22,22,22,22,22,21,32,32,22,23,35,12,12,12,12,12,12,12,12,25,12,12,12,12,12,26,17,17,18,27,28,27,28,19,32,33,34,14,32,32,33,34,14,15,13,14,25,32,32,33,12,12,13,14,24,24,24,31,24,14,12,13,14,32,33,22,32,32,33,34,14,14,14,32,33,34,12,32,33,34,34,34,22,32,33,34,13,14,15,
21,32,41,42,43,44,45,32,32,32,32,32,32,32,32,32,11,32,33,32,33,15,12,12,12,12,12,12,12,12,35,12,12,12,12,12,16,17,18,17,18,17,17,18,29,32,33,34,12,12,32,33,34,24,25,13,14,35,32,33,34,22,22,23,24,34,34,34,34,34,24,12,13,14,32,33,32,32,33,34,34,24,24,24,32,33,12,22,22,32,32,33,34,22,32,33,34,13,14,15,
21,12,13,14,14,14,14,14,14,14,14,14,14,14,14,14,21,14,14,14,14,25,12,12,12,12,12,12,12,12,45,12,12,12,12,12,26,17,18,17,18,18,17,18,19,32,33,34,14,14,14,14,14,14,35,14,14,15,32,33,34,32,32,33,34,14,14,32,33,34,34,12,12,12,32,33,34,12,32,33,34,34,34,34,32,33,22,32,32,32,33,34,14,22,32,33,34,13,14,15,
31,22,23,24,24,24,24,24,24,24,24,24,24,24,24,24,31,24,24,24,24,35,12,12,12,12,12,12,12,12,12,12,12,12,12,12,26,27,28,27,28,28,27,28,19,32,33,34,24,24,24,24,24,24,24,24,24,25,32,33,34,24,24,24,24,24,24,24,24,24,24,22,22,22,32,33,34,22,22,22,22,22,22,22,32,33,32,32,33,34,24,24,24,22,32,33,34,23,24,25,
41,32,32,32,32,32,32,32,32,32,32,32,32,32,32,32,41,32,32,32,32,45,12,12,12,12,12,12,12,12,12,12,12,12,12,12,36,37,38,37,38,37,38,38,39,32,33,34,34,34,34,34,34,34,34,34,34,35,32,33,34,34,34,34,34,34,34,34,34,34,34,32,32,32,32,33,34,32,32,32,32,32,32,32,32,33,32,33,34,34,34,34,34,22,32,33,34,33,34,35
</data>
 </layer>
</map>
