<?xml version="1.0" encoding="UTF-8"?>
<map version="1.10" tiledversion="1.12.2" orientation="orthogonal" renderorder="right-down" width="78" height="39" tilewidth="24" tileheight="24" infinite="0" nextlayerid="2" nextobjectid="1">
 <editorsettings>
  <export target="../../maps/map3.csv" format="csv"/>
 </editorsettings>
 <tileset firstgid="1" source="Gameset.tsx"/>
 <layer id="1" name="Kachelebene 1" width="78" height="39">
  <data encoding="csv">
17,17,18,27,28,17,17,17,17,17,17,17,17,17,17,17,17,17,17,17,17,17,17,17,17,17,17,17,17,17,17,17,17,17,17,17,17,17,17,17,17,17,17,17,17,17,17,17,17,17,17,17,17,17,17,17,17,17,17,17,17,17,17,17,17,17,17,17,17,17,17,17,27,27,27,17,17,18,
27,27,28,27,17,17,17,17,18,27,27,27,27,27,27,27,27,27,27,27,27,27,27,27,27,27,27,27,27,27,27,27,27,27,27,27,27,27,27,27,27,27,27,27,27,27,27,27,27,27,27,27,27,27,27,27,27,27,27,27,27,27,27,27,27,27,27,27,27,27,27,27,27,28,17,27,17,18,
28,28,27,27,27,27,27,27,28,28,17,18,27,28,27,28,27,28,27,28,27,28,27,28,27,28,27,28,27,28,27,28,27,28,27,28,27,28,27,28,27,28,27,28,27,28,27,28,27,28,27,28,27,28,27,28,27,28,27,28,27,28,27,28,27,28,27,28,27,28,27,28,27,28,27,27,27,28,
27,28,27,27,28,17,18,27,28,17,17,18,17,18,17,18,17,18,17,18,17,18,17,18,17,18,17,18,17,18,17,18,17,18,17,18,17,18,17,18,17,18,17,18,17,18,17,18,17,18,17,18,17,18,17,18,17,18,17,18,17,18,17,18,17,18,17,18,17,18,17,18,17,18,17,27,28,18,
27,28,27,28,18,27,28,17,18,27,27,28,37,37,38,37,37,38,37,38,37,38,37,38,37,38,38,37,38,37,38,37,37,38,37,38,37,38,37,38,37,38,37,38,37,37,38,37,38,37,38,37,38,38,37,38,37,38,37,37,38,37,37,38,37,38,37,38,27,28,27,28,27,28,27,27,28,28,
27,28,27,28,28,27,28,18,18,27,28,19,0,0,0,0,0,0,0,0,0,0,0,0,0,0,0,0,0,0,0,0,0,0,0,0,0,0,0,0,0,0,0,0,0,0,0,0,0,0,0,0,0,0,0,0,0,0,0,0,0,0,0,0,0,0,0,0,16,18,17,18,17,18,17,18,27,28,
27,28,28,27,28,27,28,28,18,27,28,29,0,0,0,0,0,0,0,0,0,0,0,0,0,0,0,0,0,0,0,0,0,0,0,0,0,0,0,0,0,0,0,0,0,0,0,0,0,0,0,0,0,0,0,0,0,0,0,0,0,0,0,0,0,0,0,0,16,28,27,28,27,28,27,28,27,28,
27,27,28,27,28,28,27,28,18,27,28,19,0,0,0,0,0,0,0,0,0,0,0,0,0,0,0,0,0,0,0,0,0,0,0,0,0,0,0,0,0,0,0,0,0,0,0,0,0,0,0,0,0,0,0,0,0,0,0,0,0,0,0,0,0,0,0,0,26,18,17,18,17,18,17,18,27,28,
17,27,28,27,28,28,18,18,18,27,28,29,0,0,0,0,0,0,0,0,0,0,0,0,0,0,0,0,0,0,0,0,0,0,0,0,0,0,0,0,0,0,0,0,0,0,0,0,0,0,0,0,0,0,0,0,0,0,0,0,0,0,0,0,0,0,0,0,16,28,27,28,27,28,27,28,27,28,
27,27,28,27,28,27,28,28,18,27,28,19,0,0,0,0,0,0,0,0,0,0,0,0,0,0,0,0,0,0,0,0,0,0,0,0,0,0,0,0,0,0,0,0,0,0,0,0,0,0,0,0,0,0,0,0,0,0,0,0,0,0,0,0,0,0,0,0,16,18,17,18,17,18,17,18,27,28,
27,28,28,27,28,18,28,28,18,27,28,29,0,0,0,0,0,0,0,0,0,0,0,0,0,0,0,0,0,0,0,0,0,0,0,0,0,0,0,0,0,0,0,0,0,0,0,0,0,0,0,0,0,0,0,0,0,0,0,0,0,0,0,0,0,0,0,0,26,28,27,28,27,28,27,28,27,28,
27,28,28,27,28,28,28,28,28,27,28,19,0,0,0,0,0,0,0,0,0,0,0,0,0,0,0,0,0,0,0,0,0,0,0,0,0,0,0,0,0,0,0,0,0,0,0,0,0,0,0,0,0,0,0,0,0,0,0,0,0,0,0,0,0,0,0,0,16,18,17,18,17,18,17,18,27,28,
27,28,28,27,28,27,28,27,28,27,28,29,0,0,0,0,0,0,0,0,0,0,0,0,0,0,0,6,7,7,9,0,0,0,0,0,0,0,0,0,0,0,0,0,0,0,0,0,0,0,0,0,0,0,0,0,0,0,0,0,0,0,0,0,0,0,0,0,26,28,27,28,27,28,27,28,27,28,
27,28,28,27,28,27,28,27,28,27,28,19,0,0,0,0,0,0,0,0,0,0,0,0,0,0,0,16,17,18,19,0,0,0,0,0,0,0,0,0,0,0,0,0,0,0,0,0,0,0,0,0,0,0,0,0,0,0,0,0,0,0,0,0,0,0,0,0,16,18,17,18,17,18,17,18,27,28,
27,28,28,27,28,27,28,27,28,27,28,29,0,0,0,0,0,0,0,0,0,0,0,0,0,0,0,26,27,28,29,0,0,0,0,0,0,0,0,0,0,0,6,7,8,9,0,0,0,0,0,0,0,0,0,0,0,0,0,0,0,0,0,0,0,0,0,0,26,28,27,28,27,28,27,28,27,28,
27,27,28,18,28,27,28,27,28,27,28,19,0,0,0,0,0,0,0,0,0,0,0,0,0,0,0,16,17,17,18,7,8,9,0,0,0,0,0,0,0,0,16,17,18,19,0,0,0,0,0,0,0,0,0,0,0,0,0,0,0,0,0,0,0,0,0,0,16,18,17,18,17,18,17,18,27,28,
27,28,27,28,28,27,28,27,28,27,28,29,0,0,0,0,0,0,0,6,7,8,7,8,9,0,0,26,17,18,18,17,18,19,0,0,0,0,0,0,0,0,26,27,28,29,0,0,0,0,0,0,0,0,0,0,0,0,0,0,6,7,8,9,0,0,0,0,26,28,27,28,27,28,27,28,27,28,
27,28,27,28,28,27,28,27,28,27,28,19,0,0,0,0,0,0,0,16,17,18,17,18,19,0,0,16,17,17,18,27,28,29,0,0,0,0,0,0,7,8,7,8,7,8,7,8,9,0,0,0,0,0,0,0,0,0,0,0,16,17,18,19,0,0,0,0,16,18,17,18,17,18,17,18,27,28,
27,28,27,28,28,27,28,27,28,27,28,29,0,0,0,0,0,0,0,26,27,28,27,28,29,0,0,26,17,17,18,17,17,18,7,8,7,8,7,8,17,18,17,18,18,17,17,18,19,0,0,0,0,0,0,0,0,0,0,0,0,0,0,0,0,0,0,0,26,28,27,28,27,28,27,17,27,28,
27,28,27,28,28,27,28,27,28,27,28,29,0,0,0,0,0,0,0,0,0,0,0,0,0,0,0,36,17,18,18,17,17,18,17,18,17,18,17,18,17,17,17,17,17,17,17,18,39,0,0,6,7,8,7,7,8,9,0,0,0,0,0,0,0,0,0,0,16,18,17,18,17,18,17,27,27,28,
27,28,27,28,28,27,28,27,28,27,28,19,0,0,0,0,0,0,0,0,0,0,0,0,0,0,0,0,0,0,0,0,0,0,0,0,0,0,0,0,0,0,0,0,0,0,0,0,0,0,0,16,17,17,18,17,18,19,0,0,0,0,0,0,0,0,0,0,26,28,27,28,27,28,27,27,28,18,
17,18,27,28,28,27,28,27,28,27,28,29,0,0,0,0,0,0,0,0,0,0,0,0,0,0,0,0,0,0,0,0,0,0,0,0,0,0,0,0,0,0,0,0,0,0,0,0,0,0,0,26,27,27,28,27,28,29,0,0,0,0,0,0,0,0,0,0,16,18,17,18,17,18,17,27,28,28,
27,28,27,28,28,17,27,27,28,17,18,19,0,0,6,7,8,9,0,0,0,0,0,0,0,0,0,0,0,0,0,0,0,0,0,0,0,0,0,0,0,0,0,0,0,0,0,0,0,0,0,0,0,0,0,0,0,0,0,0,6,7,8,9,0,0,0,0,26,28,27,28,27,28,27,28,27,28,
27,17,27,28,28,27,27,27,27,27,28,29,0,0,16,17,18,19,0,0,0,0,0,0,0,0,0,0,0,0,0,0,0,0,0,0,0,0,0,0,0,0,0,0,0,0,0,0,0,0,0,0,0,0,0,0,0,0,0,0,16,17,18,19,0,0,0,0,16,17,17,17,17,17,17,17,17,18,
27,27,27,28,28,18,18,18,18,18,18,19,0,0,0,0,0,0,0,0,0,0,0,0,0,0,0,0,0,0,0,0,0,0,0,0,0,0,0,0,0,0,0,0,0,0,0,0,0,0,0,0,0,0,0,0,0,0,0,0,0,0,0,0,0,0,0,0,26,27,27,27,27,17,18,27,17,18,
27,27,28,27,28,28,28,28,28,28,28,29,0,0,0,0,0,0,0,0,0,0,0,0,0,6,7,8,8,9,0,0,0,0,0,0,0,0,0,0,0,0,0,0,6,7,8,9,0,0,0,0,0,0,0,0,0,0,0,0,0,0,0,0,0,6,7,8,17,18,18,18,17,18,17,18,17,18,
27,27,28,27,28,17,18,17,18,17,18,19,0,0,0,0,0,0,0,0,0,0,0,0,0,16,17,18,18,19,0,0,0,0,0,6,7,8,9,0,0,0,0,0,16,17,18,19,0,0,0,0,0,0,0,0,0,0,0,0,0,0,0,0,0,16,17,17,18,18,28,28,18,17,27,28,17,18,
27,27,28,27,28,27,28,27,28,27,28,29,0,0,0,0,0,0,0,0,0,0,0,0,0,26,27,28,28,29,0,0,0,0,0,16,17,18,19,0,0,0,0,0,26,27,28,29,0,0,0,0,0,0,0,0,6,7,8,9,0,0,0,0,0,16,27,17,17,18,27,28,17,27,27,28,17,18,
27,27,28,27,28,37,38,37,38,37,38,0,0,0,0,0,0,0,0,0,0,0,0,0,0,0,0,0,0,0,0,0,0,0,0,0,0,0,0,0,0,0,0,0,0,0,0,0,0,0,0,0,0,0,0,0,16,17,18,19,0,0,0,0,0,26,27,27,17,17,18,17,27,27,28,18,17,18,
27,27,28,18,29,0,0,0,0,0,0,0,0,0,0,0,0,0,0,0,0,6,7,8,9,0,0,0,0,0,6,7,8,9,0,0,0,0,0,0,0,0,0,0,0,0,0,0,0,0,0,0,0,0,0,0,26,27,28,29,7,8,7,8,9,17,18,27,27,17,17,27,27,28,28,18,17,18,
27,28,17,18,19,0,0,0,0,0,0,0,0,0,0,0,0,0,0,0,0,16,18,18,19,0,0,0,0,0,16,17,18,19,0,0,0,0,0,0,0,0,0,0,0,0,0,0,0,0,0,6,7,8,7,8,7,8,18,19,17,17,17,18,19,17,18,27,28,27,27,27,28,27,28,28,17,18,
27,28,17,18,29,0,0,0,0,0,0,0,0,0,0,0,0,0,0,0,0,26,28,28,29,0,0,49,0,0,26,27,28,29,0,0,0,49,0,0,10,0,0,0,0,0,10,0,0,49,0,26,17,18,17,18,17,18,18,29,27,27,27,28,29,17,18,27,28,18,27,28,28,27,28,18,17,18,
27,28,17,17,18,7,8,7,8,7,8,7,8,7,8,7,8,7,7,8,7,8,7,8,7,8,7,8,7,8,7,8,7,8,7,8,7,7,8,8,8,7,7,8,8,8,7,8,8,8,8,17,18,28,27,28,27,28,28,39,17,18,17,18,19,17,18,27,28,18,17,17,27,28,28,28,17,18,
27,28,27,27,28,17,18,17,18,18,18,18,18,18,18,18,18,18,18,18,18,18,18,18,18,18,18,18,18,18,18,18,18,18,18,18,18,18,18,18,18,18,18,18,18,18,18,18,18,17,18,27,28,17,18,17,17,18,17,18,27,28,27,28,29,17,18,27,28,18,27,27,27,27,27,28,17,18,
17,17,17,17,17,17,18,27,28,28,28,28,28,28,28,17,18,18,28,28,28,28,28,28,28,28,28,28,28,28,28,28,28,28,28,28,28,28,28,28,28,28,17,18,28,28,28,28,28,27,28,17,18,27,28,27,27,28,27,28,17,18,17,18,19,17,18,27,28,28,28,28,28,28,18,18,17,18,
27,27,27,27,27,27,28,18,17,17,18,17,17,17,17,27,28,28,18,27,27,27,27,27,27,27,27,27,27,17,18,27,27,17,18,27,27,27,27,27,27,27,27,28,17,17,18,17,18,17,18,17,18,17,18,17,17,18,17,18,27,28,27,28,29,17,17,27,28,17,17,17,27,28,28,28,17,18,
17,17,17,17,17,17,18,18,18,18,18,18,18,18,18,18,18,18,18,18,18,17,17,18,17,17,17,17,17,27,28,17,17,27,28,17,17,17,18,17,17,17,18,27,17,17,18,17,18,27,28,17,18,17,18,17,18,28,27,17,18,18,18,18,18,17,27,27,27,27,27,27,27,27,27,28,17,18,
17,17,17,17,17,17,17,17,17,17,17,17,17,17,17,17,17,17,17,17,17,17,17,17,17,17,18,18,18,18,18,18,18,18,18,18,18,18,18,18,18,18,18,18,18,18,18,18,18,18,18,18,18,18,18,18,18,18,18,18,17,17,17,17,18,17,17,27,28,28,28,28,28,28,18,18,18,18,
27,27,27,27,27,27,27,27,27,27,27,27,27,27,27,27,27,27,27,27,27,27,27,27,27,27,28,28,28,28,28,28,28,28,28,28,28,28,28,28,28,28,28,28,28,28,28,28,28,28,28,28,28,28,28,28,28,28,28,28,27,27,27,27,28,27,27,27,27,27,27,27,27,28,28,28,28,28
</data>
 </layer>
</map>
